svg/dotnet.svg

<svg viewBox="0 0 20 20" xmlns="http://www.w3.org/2000/svg">
<rect width="100%" height="100%" fill="#512BD4"/>
<path d="M2.57578 12.9997C2.50091 13.0017 2.42641 12.9886 2.35661 12.9613C2.28681 12.9339 2.22311 12.8929 2.16921 12.8406C2.11579 12.7901 2.07322 12.7291 2.04412 12.6614C2.01501 12.5937 2 12.5207 2 12.4469C2 12.3732 2.01501 12.3002 2.04412 12.2325C2.07322 12.1648 2.11579 12.1038 2.16921 12.0533C2.22264 11.9999 2.28614 11.9579 2.35596 11.9296C2.42578 11.9012 2.50052 11.8873 2.57578 11.8885C2.65151 11.8869 2.72679 11.9007 2.79712 11.929C2.86745 11.9573 2.93141 11.9996 2.98517 12.0533C3.03934 12.1034 3.08259 12.1642 3.11217 12.232C3.14176 12.2997 3.15704 12.3729 3.15704 12.4469C3.15704 12.521 3.14176 12.5942 3.11217 12.6619C3.08259 12.7297 3.03934 12.7905 2.98517 12.8406C2.93094 12.8933 2.86678 12.9345 2.79647 12.9618C2.72615 12.9892 2.65112 13.0021 2.57578 12.9997ZM8.95948 12.9088H7.92047L5.18742 8.56601C5.11892 8.45836 5.06122 8.34411 5.0152 8.22496H4.98978C5.01972 8.49384 5.03104 8.7645 5.02367 9.03496V12.9088H4.10324V7H5.21001L7.86683 11.2405C7.97976 11.4167 8.05035 11.5247 8.08423 11.6042H8.09835C8.06639 11.3403 8.05318 11.0743 8.05882 10.8085V7H8.9736L8.95948 12.9088ZM13.4317 12.9088H10.2187V7H13.3047V7.83274H11.1674V9.50676H13.1438V10.3338H11.1674V12.0817H13.4261L13.4317 12.9088ZM18 7.83274H16.354V12.9088H15.4025V7.83274H13.7621V7H17.9972L18 7.83274Z" fill="white"/>
</svg>

<svg xmlns="http://www.w3.org/2000/svg" viewBox="0 0 20 20">
  <rect width="100%" height="100%" fill="#512BD4"/>
  <path fill="#fff" d="M2.58 13a.56.56 0 0 1-.58-.55.54.54 0 0 1 .17-.4.56.56 0 0 1 .4-.16.56.56 0 0 1 .42.16.53.53 0 0 1 0 .8.56.56 0 0 1-.41.15Zm6.38-.1H7.92L5.19 8.58c-.07-.11-.13-.23-.17-.35h-.03c.03.27.04.54.03.81v3.88H4.1V7h1.11l2.66 4.24c.11.18.18.28.21.36h.02a5.63 5.63 0 0 1-.04-.8V7h.91l-.01 5.9Zm4.47 0h-3.21V7h3.08v.83h-2.13v1.68h1.97v.82h-1.97v1.75h2.26v.83ZM18 7.84h-1.65v5.08h-.95V7.83h-1.64V7H18v.83Z"/>
</svg>
